X: 2142
T: LORD DALHOUSIE
C:
Q: "Reel."
R: Reel.
%R: reel
B: James Kerr "Merry Melodies" v.2 p.17 #142
Z: 2016 John Chambers <jc:trillian.mit.edu>
M: C
L: 1/8
K: D
uA |\
d2(fd) A/A/A (fd) | egfe dBBc |\
defd egfe | dBAF D/D/D D ::\
B |\
AFFA B2(Bd) |
AFFA BEEB | AFFA Bcd \
[1 A | BdAF D/D/D D :|[2 e | fdef d/d/d d |]

%%sep 1 1 500
%%sep 1 1 500

